www/assets/icons/water_damage.svg

<svg xmlns="http://www.w3.org/2000/svg" width="24" height="24" viewBox="0 0 24 24" fill='currentColor'><path d="m12 3.5-10 9h3v8h14v-8h3zm0 13c-1.1 0-2-.9-2-2s2-4 2-4 2 2.9 2 4-.9 2-2 2"/></svg>

<svg width="24" height="24" viewBox="0 0 24 24" xmlns="http://www.w3.org/2000/svg" fill='currentColor'><path d="M12 3.5L2 12.5H5V20.5H19V12.5H22L12 3.5ZM12 16.5C10.9 16.5 10 15.6 10 14.5C10 13.4 12 10.5 12 10.5C12 10.5 14 13.4 14 14.5C14 15.6 13.1 16.5 12 16.5Z"/></svg>
